docs/svgs/bulb-sultan.svg

<svg viewBox="0 0 24 24" height="24px" width="24px" fill="#44739e" xmlns="http://www.w3.org/2000/svg"><title>hue:bulb-sultan</title><desc>Source: https://github.com/arallsopp/hass-hue-icons</desc><path d="M 16.726562 4.046875 C 17.871094 5.101562 16.832031 7.035156 16.480469 7.726562 C 15.539062 8.003906 14.027344 8.25 12 8.25 C 9.96875 8.25 8.460938 8.003906 7.519531 7.726562 C 7.167969 7.035156 6.128906 5.101562 7.273438 4.046875 C 8.496094 2.925781 11.792969 3 12 3 C 12.207031 3 15.503906 2.925781 16.726562 4.046875 Z M 12 9 C 13.140625 9 14.808594 8.890625 16.152344 8.585938 C 15.136719 11.75 14.960938 14.644531 14.996094 15.464844 C 15.003906 15.65625 14.9375 15.839844 14.8125 15.984375 L 14.484375 16.359375 C 13.769531 16.445312 12.941406 16.5 12 16.5 C 11.058594 16.5 10.230469 16.445312 9.515625 16.359375 L 9.1875 15.984375 C 9.0625 15.839844 8.996094 15.65625 9.003906 15.464844 C 9.039062 14.644531 8.863281 11.75 7.84375 8.585938 C 9.191406 8.890625 10.859375 9 12 9 Z M 9.75 17.144531 C 10.53125 17.222656 11.390625 17.25 12.003906 17.25 C 12.613281 17.25 13.472656 17.222656 14.253906 17.144531 L 13.878906 19.476562 C 13.859375 19.640625 13.78125 19.792969 13.652344 19.90625 L 13.304688 20.226562 C 13.28125 20.246094 13.257812 20.269531 13.238281 20.292969 L 12.867188 20.730469 C 12.722656 20.902344 12.507812 21 12.277344 21 L 11.730469 21 C 11.5 21 11.28125 20.902344 11.140625 20.730469 L 10.769531 20.292969 C 10.75 20.269531 10.726562 20.246094 10.703125 20.226562 L 10.351562 19.90625 C 10.226562 19.792969 10.148438 19.640625 10.128906 19.476562 Z M 9.75 17.144531 "/></svg>

<svg viewBox="0 0 24 24" height="24px" width="24px" fill="#44739e" xmlns="http://www.w3.org/2000/svg"><title>hue:bulb-sultan</title><desc>Source: https://github.com/arallsopp/hass-hue-icons</desc><path d="M16.73,4.05c1.14,1.05,0.11,2.99-0.25,3.68C15.54,8,14.03,8.25,12,8.25C9.97,8.25,8.46,8,7.52,7.73 C7.17,7.04,6.13,5.1,7.27,4.05C8.5,2.93,11.79,3,12,3S15.5,2.93,16.73,4.05z M12,9c1.14,0,2.81-0.11,4.15-0.41 c-1.02,3.16-1.19,6.06-1.16,6.88c0.01,0.19-0.06,0.38-0.18,0.52l-0.33,0.38c-0.71,0.09-1.54,0.14-2.48,0.14s-1.77-0.05-2.48-0.14 l-0.33-0.38C9.06,15.84,9,15.66,9,15.46c0.04-0.82-0.14-3.71-1.16-6.88C9.19,8.89,10.86,9,12,9z M9.75,17.14 c0.78,0.08,1.64,0.11,2.25,0.11c0.61,0,1.47-0.03,2.25-0.11l-0.38,2.33c-0.02,0.16-0.1,0.32-0.23,0.43l-0.35,0.32 c-0.02,0.02-0.05,0.04-0.07,0.07l-0.37,0.44C12.72,20.9,12.51,21,12.28,21h-0.55c-0.23,0-0.45-0.1-0.59-0.27l-0.37-0.44 c-0.02-0.02-0.04-0.05-0.07-0.07l-0.35-0.32c-0.12-0.11-0.2-0.27-0.22-0.43L9.75,17.14z"/></svg>
